X: 758
T: Xia liulin
%%abc-version 2.0
%%abcx-abcm2ps-target-version 5.9.1 (29 Sep 2008)
%%abc-creator hum2abc beta
%%abcx-conversion-date 2013/10/02 07:52:30
%%abc-edited-by Helmut Schaffrath
%%humdrum-veritas 1186252982
%%humdrum-veritas-data 2686389965
%%continueall 1
%%barnumbers 0
L: 1/16
M: 2/4
K: G
B2 A2 B2 A G [I:setbarnb 1]| 
A2 E DB,4 | 
A2 A2 A2 B2 | 
d2A6 | 
d2> e2 e g e d | 
e d B A G E G2 | 
A B A G E D B,2 | 
D2> E2D4 |]  



